X:1
T:A wassail ox 156
M:6/4
L:1/8
S:New Oxford Book of Carrols #156
K:C
|G2|c2c2d2_B2_B2cd|_e2_e2f2d4_e2|c2c2d2(3_ef_ed2c2|_B2G2G2G4G2|c2c2d2_B4
(cd) |_e2_e2f2d4d2|c2c2d2_e2d2c2|_B2G2G2(G2F2) _EF|G2G_BAGF2FAGF|_E2_EGF_ED4C2|F2_E2FG_A2G2F2|G2c2_B2c4||

